X:25
T:Schottis fr{\aa}n Lindome
R:schottis
A:V\"asterg\"otland
Z:id:hn-schottis-25
M:C|
K:D
g|fgeg fged|cdAc e2e2|cdAc e2ec|defg a3g|
fgeg fged|cdAc e2e2|Acef (3gag ec|e2 d2 d3:|
|:A|defg a2a2|b2b2 g3e|cdef g2 (3gfg|a2f2 d3A|
defg a2a2|b2b2 g3e|Acef gfec|e2 d2 d3:|
<end>
<start>
